svgs/solid/dial-high.svg

<svg xmlns="http://www.w3.org/2000/svg" viewBox="0 0 576 512"><!-- Font Awesome Pro 6.0.0-alpha2 by @fontawesome - https://fontawesome.com License - https://fontawesome.com/license (Commercial License) --><path d="M288 64C305.674 64 320 49.674 320 32S305.674 0 288 0C270.328 0 256 14.326 256 32S270.328 64 288 64ZM32 256C14.326 256 0 270.328 0 288C0 305.674 14.326 320 32 320S64 305.674 64 288C64 270.328 49.674 256 32 256ZM544 256C526.326 256 512 270.328 512 288C512 305.674 526.326 320 544 320S576 305.674 576 288C576 270.328 561.674 256 544 256ZM446.393 84.354C433.896 96.85 433.896 117.111 446.393 129.607C458.891 142.105 479.152 142.105 491.648 129.607C504.145 117.111 504.145 96.85 491.648 84.354S458.891 71.857 446.393 84.354ZM84.354 446.393C71.857 458.891 71.857 479.15 84.354 491.648C96.85 504.145 117.111 504.145 129.609 491.648C142.105 479.15 142.105 458.891 129.609 446.393C117.111 433.896 96.85 433.896 84.354 446.393ZM446.393 446.393C433.896 458.891 433.896 479.15 446.393 491.648C458.891 504.145 479.152 504.145 491.648 491.648C504.145 479.15 504.145 458.891 491.648 446.393C479.152 433.896 458.891 433.896 446.393 446.393ZM129.609 129.607C142.105 117.111 142.105 96.85 129.609 84.354C117.111 71.857 96.85 71.857 84.354 84.354S71.857 117.111 84.354 129.607C96.85 142.105 117.111 142.105 129.609 129.607ZM174.864 401.139C237.348 463.623 338.654 463.623 401.138 401.139C428.291 373.986 442.914 339.443 446.469 303.999H288.002C279.164 303.999 272.004 296.84 272.004 288.001S279.164 272.003 288.002 272.003H446.469C442.915 236.56 428.293 202.017 401.139 174.864C338.654 112.379 237.348 112.379 174.863 174.864C112.379 237.348 112.379 338.654 174.864 401.139Z"/></svg>

<svg xmlns="http://www.w3.org/2000/svg" viewBox="0 0 576 512"><!--! Font Awesome Pro 6.0.0-alpha3 by @fontawesome - https://fontawesome.com License - https://fontawesome.com/license (Commercial License) --><path d="M288 64c17.67 0 32-14.33 32-32s-14.33-32-32-32C270.3 0 256 14.33 256 32S270.3 64 288 64zM32 256C14.33 256 0 270.3 0 288c0 17.67 14.33 32 32 32s32-14.33 32-32C64 270.3 49.67 256 32 256zM544 256c-17.67 0-32 14.33-32 32c0 17.67 14.33 32 32 32s32-14.33 32-32C576 270.3 561.7 256 544 256zM446.4 84.35c-12.5 12.5-12.5 32.76 0 45.25c12.5 12.5 32.76 12.5 45.26 0c12.5-12.5 12.5-32.76 0-45.25S458.9 71.86 446.4 84.35zM84.35 446.4c-12.5 12.5-12.5 32.76 0 45.26c12.5 12.5 32.76 12.5 45.26 0c12.5-12.5 12.5-32.76 0-45.26C117.1 433.9 96.85 433.9 84.35 446.4zM446.4 446.4c-12.5 12.5-12.5 32.76 0 45.26c12.5 12.5 32.76 12.5 45.26 0c12.5-12.5 12.5-32.76 0-45.26C479.2 433.9 458.9 433.9 446.4 446.4zM129.6 129.6c12.5-12.5 12.5-32.76 0-45.25c-12.5-12.5-32.76-12.5-45.26 0s-12.5 32.76 0 45.25C96.85 142.1 117.1 142.1 129.6 129.6zM174.9 401.1c62.48 62.48 163.8 62.48 226.3 0c27.15-27.15 41.78-61.7 45.33-97.14l-158.5 .001c-8.839 0-15.1-7.16-15.1-15.1s7.16-15.1 15.1-15.1l158.5 0c-3.553-35.44-18.18-69.99-45.33-97.14c-62.49-62.49-163.8-62.49-226.3 0C112.4 237.3 112.4 338.7 174.9 401.1z"/></svg>
